X:1
T:Title
%%score { ( 1 4 ) | ( 2 3 ) }
L:1/8
M:2/4
K:G
V:1 treble nm="Grand Piano"
V:4 treble 
V:2 bass 
V:3 bass 
V:1
 z2 z[Q:1/4=94] D | [B,D] [DB]2 [CA] | [B,G] [B,G]2 [DF] | [CE] [EG]2 [CE] | [B,D]3 [B,D] | DA AA | %6
 GB Bd | d2 [DB][DG] | [DA]3 [Fd] | d2 dd | B B2 A | [EG] [EG]2 [EG] | [G,CE]3 [G,CE] | %13
 [G,B,D][DG] [G,DG]A |[M:5/8] B d3 [DB] |[M:2/4] [EA]2 [G,EG][CG] | [B,G]4 | Bd d2 | [Fd]3 [DFd] | %19
 [DGB]2 [B,DG][DGB] | [DGB] [DFA]3 | F-[F-d] [Fd]2 | d3 [DB] | [^CA] [CE]2 [CF] | E D2 D | DB BA | %26
 G G2 G | [CEG][Gc] [EGc][EGc] | B3 d | d d2 e | %30
 d B2 [DG][Q:1/4=91][Q:1/4=88][Q:1/4=85][Q:1/4=82][Q:1/4=79][Q:1/4=76][Q:1/4=73] | %31
 [EA]2 [G,EG][CG] |[M:3/8] [B,G]3 |] %33
V:2
 z2 z D, | [G,,G,] [G,,G,]2 [G,,G,] | [G,,G,] [G,,G,]2 [B,,G,] | [C,G,] [C,G,]2 [C,G,] | %4
 [G,,G,]3 [G,,G,] | [D,F,C]2 [D,F,C][D,F,C] | G,-[G,D] [G,D][G,B,D] | [G,B,D]2 [G,,G,][B,,G,] | %8
 [D,F,]3 [D,C] | [G,B,G]2 [G,B,G][G,B,G] | [G,DG] [G,DG]2[K:bass] [G,B,D] | [C,C] [C,C]2 [C,C] | %12
 C,3 C, | z B, B,,[D,F,D] |[M:5/8] [G,D] [G,B,D]3 [G,,G,] |[M:2/4] z z/ G/ C,[C,E,] | [G,,D,]4 | %17
 D-[B,D] [B,G]2 | [D,A,]3 D, | G,2 G,G, | D, D,3 | z A, A,2 | [G,B,G]3 [G,,G,] | %23
 [A,,E,] [A,,G,]2 [A,,A,] | [D,G,^C] [D,F,]2 [D,F,=C] | B,[K:treble]D [G,D][G,CD] | %26
 [G,B,D] [G,B,D]2 [G,B,=F] | z E C,E, | [G,DG]3 [G,B,G] | [G,B,G] [G,B,G]2 [G,CG] | %30
 [G,B,G] [G,DG]2[K:bass] [B,,G,] | z z/ G/ C,[C,E,] |[M:3/8] [G,,D,]3 |] %33
V:3
 x4 | x4 | x4 | x4 | x4 | x4 | .B,2 z2 | x4 | x4 | x4 | x3[K:bass] x | x4 | x4 | G,,2 z2 | %14
[M:5/8] x5 |[M:2/4] [C,G,]2 z2 | x4 | G,4 | x4 | x4 | x4 | D,4 | x4 | x4 | x4 | G,2[K:treble] z2 | %26
 x4 | C,2 z2 | x4 | x4 | x3[K:bass] x | [C,G,]2 z2 |[M:3/8] x3 |] %33
V:4
 x4 | x4 | x4 | x4 | x4 | x4 | x4 | x4 | x4 | x4 | x4 | x4 | x4 | x4 |[M:5/8] x5 |[M:2/4] x4 | x4 | %17
 x4 | x4 | x4 | x4 | .[DA]2 z2 | x4 | x4 | x4 | x4 | x4 | x4 | x4 | x4 | x4 | x4 |[M:3/8] x3 |] %33

